X: 32
T:Sweet Ellen
% Nottingham Music Database
S:via PR
M:4/4
L:1/4
K:D
F/2E/2|"D"DD/2E/2 FE/2D/2|F/2AF/2 A3/2A/2|"G"B/2A/2B/2c/2 "D"d/2B/2A/2G/2|\
"E7"FE/2D/2 "A7"EF/2E/2|
"D"A,/2D/2D/2D/2 FE/2D/2|"D"F/2AF/2 A3/2A/2|"G"B/2A/2B/2c/2 "A7"d/2B/2A/2G/2|\
"D"FD D2::
"D"f/2ab/2 a/2f/2d/2e/2|f/2e/2d/2e/2 f/2e/2d/2e/2|"D"f/2ab/2 a/2f/2d/2e/2|\
"E7"f/2e/2d "A7"e3/2e/2|
"D"f/2ab/2 a/2f/2d/2e/2|"E7"f/2e/2d "Bm"BA|"G"B/2c/2d/2B/2 "A7"A/2G/2F/2E/2|\
"D"FD D2:|


